static/assets/img/logos/brand/color-intercom.svg

<svg fill="none" height="36" viewBox="0 0 141 36" width="141" xmlns="http://www.w3.org/2000/svg"><path d="m47.7086 23.2v-10.4c0-.64.5199-1.16 1.1597-1.16.6399 0 1.1598.52 1.1598 1.16v10.4c0 .64-.5199 1.16-1.1598 1.16-.5998 0-1.1597-.52-1.1597-1.16zm13.2769.44-5.0388-8.04v7.6c0 .64-.5199 1.16-1.1598 1.16-.6398 0-1.1597-.52-1.1597-1.16v-10.08c0-.84.6798-1.56 1.5596-1.56h.08c.5199 0 1.0398.28 1.3197.72l4.9988 7.92v-7.48c0-.64.5199-1.16 1.1597-1.16.6399 0 1.1598.52 1.1598 1.16v10.08c0 .84-.6799 1.56-1.5597 1.56-.5598 0-1.0797-.24-1.3596-.72zm10.9973-9.84v9.52c0 .6-.4798 1.08-1.0797 1.08h-.16c-.5998 0-1.0797-.48-1.0797-1.08v-9.52h-2.6794c-.5998 0-1.0797-.48-1.0797-1.08s.4799-1.08 1.0797-1.08h7.7182c.5998 0 1.0797.48 1.0797 1.08s-.4799 1.08-1.0797 1.08zm5.6387 9.52v-10.68c0-.56.4799-1.04 1.0397-1.04h6.9984c.5598 0 1.0397.48 1.0397 1.04s-.4799 1.04-1.0397 1.04h-5.7187v2.96h4.9189c.5598 0 1.0397.48 1.0397 1.04s-.4799 1.04-1.0397 1.04h-4.9189v3.48h5.7187c.5598 0 1.0397.48 1.0397 1.04s-.4799 1.04-1.0397 1.04h-6.9984c-.5598.08-1.0397-.36-1.0397-.96zm18.8755.36-1.8396-4.12h-2.8393v3.68c0 .64-.5199 1.16-1.1597 1.16h-.04c-.6399 0-1.1597-.52-1.1597-1.16v-10.44c0-.64.5198-1.16 1.1597-1.16h4.239c3.0393 0 4.4389 1.92 4.4389 3.96 0 1.72-.9198 3.04-2.3194 3.56l1.5996 3.6c.3199.76-.2 1.6-1.0398 1.6-.4399 0-.8797-.24-1.0397-.68zm-1.5996-10.04h-3.0393v3.8h3.0793c1.3196 0 2.0795-.68 2.0795-1.88-.04-1-.7998-1.92-2.1195-1.92zm15.4366 9.44c-.96.96-2.28 1.52-3.639 1.52-1.36 0-2.64-.44-3.6-1.44-1.399-1.4-1.599-3.08-1.599-5.16s.2-3.8 1.599-5.16c.96-.96 2.24-1.44 3.6-1.44 1.359 0 2.679.52 3.639 1.48.32.36.6.72.799 1.16.36.76-.199 1.6-1.039 1.6-.48 0-.88-.28-1.08-.72-.08-.24-.24-.44-.4-.64-.4-.52-1.12-.8-1.919-.8-.72 0-1.44.32-1.96.84-.88.92-.88 2.48-.88 3.68 0 1.16 0 2.76.88 3.68.52.52 1.24.84 1.96.84.799 0 1.519-.28 1.919-.8.16-.2.32-.44.4-.68.16-.44.6-.72 1.08-.72.84 0 1.399.84 1.039 1.6-.199.44-.479.84-.799 1.16zm12.437.08c-.96.96-2.32 1.44-3.679 1.44-1.36 0-2.68-.48-3.68-1.44-1.399-1.4-1.599-3.08-1.599-5.16s.24-3.8 1.599-5.16c.96-.96 2.32-1.44 3.68-1.44 1.359 0 2.679.48 3.679 1.44 1.399 1.4 1.599 3.08 1.599 5.16.04 2.08-.2 3.8-1.599 5.16zm-1.64-8.8c-.52-.52-1.28-.84-1.999-.84-.72 0-1.52.32-2 .84-.88.92-.92 2.48-.92 3.68 0 1.16.04 2.72.92 3.64.52.52 1.28.84 2 .84.719 0 1.519-.32 1.999-.84.88-.92.92-2.48.92-3.64 0-1.2-.04-2.8-.92-3.68zm16.716 8.88v-7.96l-2.999 8.12c-.16.48-.64.8-1.16.8s-.96-.32-1.16-.8l-2.999-8.24v8.08c0 .64-.52 1.12-1.12 1.12-.639 0-1.119-.52-1.119-1.12v-9.88c0-.96.799-1.76 1.759-1.76h.16c.72 0 1.4.44 1.64 1.16l2.919 7.92 2.959-7.92c.24-.68.92-1.16 1.64-1.16.96 0 1.76.8 1.76 1.76v9.88c0 .64-.52 1.12-1.12 1.12-.68 0-1.16-.48-1.16-1.12zm-106.3345-23.24h-26.99358c-2.5194 0-4.51892 2-4.51892 4.48v27c0 2.52 1.99952 4.52 4.51892 4.52h26.99358c2.4794 0 4.4789-2 4.4789-4.48v-27c0-2.52-1.9995-4.52-4.4789-4.52zm-8.7179 6.6c0-.68.5198-1.2 1.1997-1.2.6798 0 1.1997.52 1.1997 1.2v16.04c0 .68-.5199 1.2-1.1997 1.2-.6799 0-1.1997-.52-1.1997-1.2zm-5.9986-.6c0-.68.5199-1.2 1.1997-1.2s1.1997.52 1.1997 1.2v17.4c0 .68-.5199 1.2-1.1997 1.2s-1.1997-.52-1.1997-1.2zm-5.9986.6c0-.68.5199-1.2 1.1997-1.2.6799 0 1.1998.52 1.1998 1.2v16.04c0 .68-.5199 1.2-1.1998 1.2-.6798 0-1.1997-.52-1.1997-1.2zm-5.99854 2.4c0-.68.51987-1.2 1.19971-1.2s1.19971.52 1.19971 1.2v10.8c0 .68-.51987 1.2-1.19971 1.2s-1.19971-.52-1.19971-1.2zm25.99384 18.32c-.2.16-4.6389 3.88-12.797 3.88-8.15805 0-12.59699-3.72-12.79694-3.88-.51988-.44-.55987-1.2-.11997-1.68.43989-.52 1.19971-.56 1.6796-.12.07998 0 4.03901 3.28 11.23731 3.28 7.2783 0 11.1973-3.28 11.1973-3.32.5199-.44 1.2797-.36 1.6796.12.4799.52.3999 1.28-.0799 1.72zm.3999-7.52c0 .68-.5199 1.2-1.1998 1.2-.6798 0-1.1997-.52-1.1997-1.2v-10.8c0-.68.5199-1.2 1.1997-1.2.6799 0 1.1998.52 1.1998 1.2z" fill="#2890ea"/></svg>

<svg width="141" height="36" viewBox="0 0 141 36" fill="none" xmlns="http://www.w3.org/2000/svg">
<path d="M47.7086 23.2V12.8C47.7086 12.16 48.2285 11.64 48.8683 11.64C49.5082 11.64 50.0281 12.16 50.0281 12.8V23.2C50.0281 23.84 49.5082 24.36 48.8683 24.36C48.2685 24.36 47.7086 23.84 47.7086 23.2ZM60.9855 23.64L55.9467 15.6V23.2C55.9467 23.84 55.4268 24.36 54.7869 24.36C54.1471 24.36 53.6272 23.84 53.6272 23.2V13.12C53.6272 12.28 54.307 11.56 55.1868 11.56H55.2668C55.7867 11.56 56.3066 11.84 56.5865 12.28L61.5853 20.2V12.72C61.5853 12.08 62.1052 11.56 62.745 11.56C63.3849 11.56 63.9048 12.08 63.9048 12.72V22.8C63.9048 23.64 63.2249 24.36 62.3451 24.36C61.7853 24.36 61.2654 24.12 60.9855 23.64ZM71.9828 13.8V23.32C71.9828 23.92 71.503 24.4 70.9031 24.4H70.7431C70.1433 24.4 69.6634 23.92 69.6634 23.32V13.8H66.984C66.3842 13.8 65.9043 13.32 65.9043 12.72C65.9043 12.12 66.3842 11.64 66.984 11.64H74.7022C75.302 11.64 75.7819 12.12 75.7819 12.72C75.7819 13.32 75.302 13.8 74.7022 13.8H71.9828ZM77.6215 23.32V12.64C77.6215 12.08 78.1014 11.6 78.6612 11.6H85.6596C86.2194 11.6 86.6993 12.08 86.6993 12.64C86.6993 13.2 86.2194 13.68 85.6596 13.68H79.9409V16.64H84.8598C85.4196 16.64 85.8995 17.12 85.8995 17.68C85.8995 18.24 85.4196 18.72 84.8598 18.72H79.9409V22.2H85.6596C86.2194 22.2 86.6993 22.68 86.6993 23.24C86.6993 23.8 86.2194 24.28 85.6596 24.28H78.6612C78.1014 24.36 77.6215 23.92 77.6215 23.32ZM96.497 23.68L94.6574 19.56H91.8181V23.24C91.8181 23.88 91.2982 24.4 90.6584 24.4H90.6184C89.9785 24.4 89.4587 23.88 89.4587 23.24V12.8C89.4587 12.16 89.9785 11.64 90.6184 11.64H94.8574C97.8967 11.64 99.2963 13.56 99.2963 15.6C99.2963 17.32 98.3765 18.64 96.9769 19.16L98.5765 22.76C98.8964 23.52 98.3765 24.36 97.5367 24.36C97.0968 24.36 96.657 24.12 96.497 23.68ZM94.8974 13.64H91.8581V17.44H94.9374C96.257 17.44 97.0169 16.76 97.0169 15.56C96.9769 14.56 96.2171 13.64 94.8974 13.64ZM110.334 23.08C109.374 24.04 108.054 24.6 106.695 24.6C105.335 24.6 104.055 24.16 103.095 23.16C101.696 21.76 101.496 20.08 101.496 18C101.496 15.92 101.696 14.2 103.095 12.84C104.055 11.88 105.335 11.4 106.695 11.4C108.054 11.4 109.374 11.92 110.334 12.88C110.654 13.24 110.934 13.6 111.133 14.04C111.493 14.8 110.934 15.64 110.094 15.64C109.614 15.64 109.214 15.36 109.014 14.92C108.934 14.68 108.774 14.48 108.614 14.28C108.214 13.76 107.494 13.48 106.695 13.48C105.975 13.48 105.255 13.8 104.735 14.32C103.855 15.24 103.855 16.8 103.855 18C103.855 19.16 103.855 20.76 104.735 21.68C105.255 22.2 105.975 22.52 106.695 22.52C107.494 22.52 108.214 22.24 108.614 21.72C108.774 21.52 108.934 21.28 109.014 21.04C109.174 20.6 109.614 20.32 110.094 20.32C110.934 20.32 111.493 21.16 111.133 21.92C110.934 22.36 110.654 22.76 110.334 23.08ZM122.771 23.16C121.811 24.12 120.451 24.6 119.092 24.6C117.732 24.6 116.412 24.12 115.412 23.16C114.013 21.76 113.813 20.08 113.813 18C113.813 15.92 114.053 14.2 115.412 12.84C116.372 11.88 117.732 11.4 119.092 11.4C120.451 11.4 121.771 11.88 122.771 12.84C124.17 14.24 124.37 15.92 124.37 18C124.41 20.08 124.17 21.8 122.771 23.16ZM121.131 14.36C120.611 13.84 119.851 13.52 119.132 13.52C118.412 13.52 117.612 13.84 117.132 14.36C116.252 15.28 116.212 16.84 116.212 18.04C116.212 19.2 116.252 20.76 117.132 21.68C117.652 22.2 118.412 22.52 119.132 22.52C119.851 22.52 120.651 22.2 121.131 21.68C122.011 20.76 122.051 19.2 122.051 18.04C122.051 16.84 122.011 15.24 121.131 14.36ZM137.847 23.24V15.28L134.848 23.4C134.688 23.88 134.208 24.2 133.688 24.2C133.168 24.2 132.728 23.88 132.528 23.4L129.529 15.16V23.24C129.529 23.88 129.009 24.36 128.409 24.36C127.77 24.36 127.29 23.84 127.29 23.24V13.36C127.29 12.4 128.089 11.6 129.049 11.6H129.209C129.929 11.6 130.609 12.04 130.849 12.76L133.768 20.68L136.727 12.76C136.967 12.08 137.647 11.6 138.367 11.6C139.327 11.6 140.127 12.4 140.127 13.36V23.24C140.127 23.88 139.607 24.36 139.007 24.36C138.327 24.36 137.847 23.88 137.847 23.24ZM31.5125 0H4.51892C1.99952 0 0 2 0 4.48V31.48C0 34 1.99952 36 4.51892 36H31.5125C33.9919 36 35.9914 34 35.9914 31.52V4.52C35.9914 2 33.9919 0 31.5125 0ZM22.7946 6.6C22.7946 5.92 23.3144 5.4 23.9943 5.4C24.6741 5.4 25.194 5.92 25.194 6.6V22.64C25.194 23.32 24.6741 23.84 23.9943 23.84C23.3144 23.84 22.7946 23.32 22.7946 22.64V6.6ZM16.796 6C16.796 5.32 17.3159 4.8 17.9957 4.8C18.6755 4.8 19.1954 5.32 19.1954 6V23.4C19.1954 24.08 18.6755 24.6 17.9957 24.6C17.3159 24.6 16.796 24.08 16.796 23.4V6ZM10.7974 6.6C10.7974 5.92 11.3173 5.4 11.9971 5.4C12.677 5.4 13.1969 5.92 13.1969 6.6V22.64C13.1969 23.32 12.677 23.84 11.9971 23.84C11.3173 23.84 10.7974 23.32 10.7974 22.64V6.6ZM4.79886 9C4.79886 8.32 5.31873 7.8 5.99857 7.8C6.67841 7.8 7.19828 8.32 7.19828 9V19.8C7.19828 20.48 6.67841 21 5.99857 21C5.31873 21 4.79886 20.48 4.79886 19.8V9ZM30.7927 27.32C30.5927 27.48 26.1538 31.2 17.9957 31.2C9.83765 31.2 5.39871 27.48 5.19876 27.32C4.67888 26.88 4.63889 26.12 5.07879 25.64C5.51868 25.12 6.2785 25.08 6.75839 25.52C6.83837 25.52 10.7974 28.8 17.9957 28.8C25.274 28.8 29.193 25.52 29.193 25.48C29.7129 25.04 30.4727 25.12 30.8726 25.6C31.3525 26.12 31.2725 26.88 30.7927 27.32ZM31.1926 19.8C31.1926 20.48 30.6727 21 29.9928 21C29.313 21 28.7931 20.48 28.7931 19.8V9C28.7931 8.32 29.313 7.8 29.9928 7.8C30.6727 7.8 31.1926 8.32 31.1926 9V19.8Z" fill="#2890EA"/>
</svg>
